X: 22349
T: La Volta
R: waltz
M: 3/4
K: Gmajor
BAG B3|BAG d3|BAG d>cB|cA2 G3:|
GBc dc/d/e|cB/c/d B>AG|GBc d>cB|cA2 G3|
G>AB/c/ dc/d/e|cB/c/d BA/B/G|DG/A/B/c/ d>cB|cA2 G3|
BA/B/G B3|BA/B/G d3|BA/B/G d>cB/A/|c/B/A/G/A G3|
BA/B/G/A/ B/c/B2|BG/A/B/c/ d/e/d2|B/G/A/B/A/G/ F/E/D/d/c/B/|A/G/F/E/D/C/ B,/A,/G,2|
G>AB/c/ d/B/c/d/e|^c/A/B/c/d B/G/A/B/G|D G/A/B/c/ d/B/c/d/c/A/|c/B/A2 G3||

